packages/icons/raw/shadcn/fish.svg

<svg width="24" height="24" viewBox="0 0 24 24" fill="none" xmlns="http://www.w3.org/2000/svg">
<path d="M6.5 12C7.44 8.54 11.44 6 15 6C18.56 6 21.06 8.54 22 12C21.06 15.47 18.56 18 15 18C11.44 18 7.44 15.47 6.5 12Z" stroke="black" stroke-width="2" stroke-linecap="round" stroke-linejoin="round"/>
<path d="M18 12V12.5" stroke="black" stroke-width="2" stroke-linecap="round" stroke-linejoin="round"/>
<path d="M16 17.9299C14.6992 16.2267 13.9945 14.1431 13.9945 11.9999C13.9945 9.85682 14.6992 7.77316 16 6.06995" stroke="black" stroke-width="2" stroke-linecap="round" stroke-linejoin="round"/>
<path d="M6.99998 10.67C6.99998 8 5.57998 5.97 2.72998 5.5C1.72998 7 1.72998 10.5 2.95998 12C1.71998 13.5 1.71998 17 2.72998 18.5C5.57998 18.03 6.99998 16 6.99998 13.33" stroke="black" stroke-width="2" stroke-linecap="round" stroke-linejoin="round"/>
<path d="M10.46 7.26001C10.2 5.88001 9.17 4.24001 8 3.00001H13.8C14.2745 2.99826 14.7342 3.16526 15.0969 3.47118C15.4596 3.7771 15.7017 4.20202 15.78 4.67001L16.01 6.07001" stroke="black" stroke-width="2" stroke-linecap="round" stroke-linejoin="round"/>
<path d="M16.01 17.93L15.78 19.33C15.7017 19.798 15.4596 20.2229 15.0969 20.5289C14.7342 20.8348 14.2745 21.0018 13.8 21H9.5C10.4689 19.9015 10.9993 18.4847 10.99 17.02" stroke="black" stroke-width="2" stroke-linecap="round" stroke-linejoin="round"/>
</svg>

<!-- @license lucide-static v1.23.0 - ISC -->
<svg
  class="lucide lucide-fish"
  xmlns="http://www.w3.org/2000/svg"
  width="24"
  height="24"
  viewBox="0 0 24 24"
  fill="none"
  stroke="currentColor"
  stroke-width="2"
  stroke-linecap="round"
  stroke-linejoin="round"
>
  <path d="M6.5 12c.94-3.46 4.94-6 8.5-6 3.56 0 6.06 2.54 7 6-.94 3.47-3.44 6-7 6s-7.56-2.53-8.5-6Z" />
  <path d="M18 12v.5" />
  <path d="M16 17.93a9.77 9.77 0 0 1 0-11.86" />
  <path d="M7 10.67C7 8 5.58 5.97 2.73 5.5c-1 1.5-1 5 .23 6.5-1.24 1.5-1.24 5-.23 6.5C5.58 18.03 7 16 7 13.33" />
  <path d="M10.46 7.26C10.2 5.88 9.17 4.24 8 3h5.8a2 2 0 0 1 1.98 1.67l.23 1.4" />
  <path d="m16.01 17.93-.23 1.4A2 2 0 0 1 13.8 21H9.5a5.96 5.96 0 0 0 1.49-3.98" />
</svg>
